Origami/64x64/apps/trashindicator.svg

<svg width="64" height="64" version="1" xmlns="http://www.w3.org/2000/svg">
 <path d="m9.9997 55.942v2c0 1.694 1.3086 3.058 2.9336 3.058h38.132c1.626 0 2.934-1.364 2.934-3.058v-2c0 1.694-1.308 3.058-2.934 3.058h-38.132c-1.6254 0-2.934-1.364-2.934-3.058z" style="opacity:.2"/>
 <rect x="24" y="4" width="16" height="6" style="fill:#629c4d"/>
 <rect x="10" y="8" width="44" height="52" rx="2.934" ry="3.058" style="fill:#518140"/>
 <path d="m5.9997 14v2c0 1.662 1.2902 3 2.8906 3h46.22c1.6 0 2.89-1.338 2.89-3v-2c0 1.662-1.29 3-2.89 3h-46.22c-1.5998 0-2.89-1.338-2.89-3z" style="opacity:.2"/>
 <rect x="6" y="6" width="52" height="12" rx="2.888" ry="3" style="fill:#629c4d"/>
 <rect x="28" y="26" width="8" height="28" rx="2" ry="1.4" style="opacity:.4"/>
 <rect x="16" y="26" width="8" height="28" rx="2" ry="1.4" style="opacity:.4"/>
 <rect x="40" y="26" width="8" height="28" rx="2" ry="1.4" style="opacity:.4"/>
 <path d="m8.890625 6c-1.6004 0-2.890625 1.338-2.890625 3v1c0-1.662 1.290225-3 2.890625-3h46.21875c1.6 0 2.890625 1.338 2.890625 3v-1c0-1.662-1.290625-3-2.890625-3h-46.21875z" style="fill:#ffffff;opacity:.2"/>
 <path d="m24 4v1h16v-1h-16z" style="fill:#ffffff;opacity:.1"/>
</svg>

<svg xmlns="http://www.w3.org/2000/svg" width="64" height="64" version="1">
 <path style="opacity:0.2" d="m 9.9997,55.942 0,2 c 0,1.694 1.3086,3.058 2.9336,3.058 l 38.132,0 c 1.626,0 2.934,-1.364 2.934,-3.058 l 0,-2 c 0,1.694 -1.308,3.058 -2.934,3.058 l -38.132,0 c -1.6254,0 -2.934,-1.364 -2.934,-3.058 z"/>
 <rect style="fill:#629c4d" width="16" height="6" x="24" y="4"/>
 <rect style="fill:#518140" width="44" height="52" x="10" y="8" rx="2.934" ry="3.058"/>
 <path style="opacity:0.2" d="m 5.9997,14 0,2 c 0,1.662 1.2902,3 2.8906,3 l 46.22,0 c 1.6,0 2.89,-1.338 2.89,-3 l 0,-2 c 0,1.662 -1.29,3 -2.89,3 l -46.22,0 c -1.5998,0 -2.89,-1.338 -2.89,-3 z"/>
 <rect style="fill:#629c4d" width="52" height="12" x="6" y="6" rx="2.888" ry="3"/>
 <rect style="opacity:0.4" width="8" height="28" x="28" y="26" rx="2" ry="1.4"/>
 <rect style="opacity:0.4" width="8" height="28" x="16" y="26" rx="2" ry="1.4"/>
 <rect style="opacity:0.4" width="8" height="28" x="40" y="26" rx="2" ry="1.4"/>
 <path style="opacity:0.2;fill:#ffffff" d="M 8.890625 6 C 7.290225 6 6 7.338 6 9 L 6 10 C 6 8.338 7.290225 7 8.890625 7 L 55.109375 7 C 56.709375 7 58 8.338 58 10 L 58 9 C 58 7.338 56.709375 6 55.109375 6 L 8.890625 6 z"/>
 <path style="opacity:0.1;fill:#ffffff" d="M 24 4 L 24 5 L 40 5 L 40 4 L 24 4 z"/>
</svg>
